styles/2/Numix/256/places/default-folder-wine.svg

<?xml version="1.0" encoding="UTF-8" standalone="no"?>
<svg
   xmlns:dc="http://purl.org/dc/elements/1.1/"
   xmlns:cc="http://creativecommons.org/ns#"
   xmlns:rdf="http://www.w3.org/1999/02/22-rdf-syntax-ns#"
   xmlns:svg="http://www.w3.org/2000/svg"
   xmlns="http://www.w3.org/2000/svg"
   xmlns:sodipodi="http://sodipodi.sourceforge.net/DTD/sodipodi-0.dtd"
   xmlns:inkscape="http://www.inkscape.org/namespaces/inkscape"
   width="256px"
   height="256px"
   viewBox="0 0 256 256"
   version="1.1"
   id="svg8437"
   inkscape:version="0.91 r"
   sodipodi:docname="default-folder-wine.svg">
  <metadata
     id="metadata8454">
    <rdf:RDF>
      <cc:Work
         rdf:about="">
        <dc:format>image/svg+xml</dc:format>
        <dc:type
           rdf:resource="http://purl.org/dc/dcmitype/StillImage" />
      </cc:Work>
    </rdf:RDF>
  </metadata>
  <defs
     id="defs8452" />
  <sodipodi:namedview
     pagecolor="#ffffff"
     bordercolor="#666666"
     borderopacity="1"
     objecttolerance="10"
     gridtolerance="10"
     guidetolerance="10"
     inkscape:pageopacity="0"
     inkscape:pageshadow="2"
     inkscape:window-width="640"
     inkscape:window-height="480"
     id="namedview8450" />
  <g
     id="surface1">
    <path
       style=" stroke:none;fill-rule:nonzero;fill:rgb(91.372549%,69.019608%,50.196078%);fill-opacity:1;"
       d="M 36 32 C 30.140625 32 24 38.046875 24 44 L 24 48 L 12 48 C 6.117188 48 0 53.984375 0 60 L 0 212 C 0 220 4 224 12 224 L 244 224 C 250.273438 224 256 218.570312 256 212 L 256 80 C 256 73.976562 250.179688 68 244 68 L 232 68 L 232 44 C 232 38.15625 226.1875 32 220 32 Z M 36 32 "
       id="path8440" />
    <path
       style=" stroke:none;fill-rule:nonzero;fill:rgb(0%,0%,0%);fill-opacity:0.321569;"
       d="M 36 32 C 30.140625 32 24 38.046875 24 44 L 24 48 L 12 48 C 6.117188 48 0 53.984375 0 60 L 0 212 C 0 220 4 224 12 224 L 244 224 C 250.273438 224 256 218.570312 256 212 L 256 80 C 256 73.976562 250.179688 68 244 68 L 232 68 L 232 44 C 232 38.15625 226.1875 32 220 32 Z M 12 56 L 148 56 C 150.359375 56 152 58.0625 152 60 L 152 76 L 244 76 C 246.023438 76 248 78.03125 248 80 L 248 212 C 248 214.085938 246.085938 216 244 216 L 12 216 C 10.140625 216 8 214.414062 8 212 L 8 60 C 8 58.03125 10.0625 56 12 56 Z M 12 56 "
       id="path8442" />
    <path
       style=" stroke:none;fill-rule:nonzero;fill:rgb(0%,0%,0%);fill-opacity:0.321569;"
       d="M 164.15625 100.007812 C 160.015625 100.070312 155.9375 102.617188 155.28125 107.375 C 154.234375 114.976562 162.070312 112.125 168.335938 112.125 C 174.601562 112.125 176.6875 124.476562 175.125 131.132812 C 173.554688 137.789062 156.90625 153.5 119.257812 137.789062 C 88.257812 124.851562 72.78125 142.078125 72 142.421875 C 74.929688 168.125 98.851562 196 127.867188 196 C 158.867188 196 184 165.289062 184 137.070312 C 184 133.835938 183.585938 130.640625 182.953125 127.570312 C 182.382812 126.015625 181.8125 124.46875 181.390625 123.054688 C 180.632812 120.523438 179.773438 118.390625 179.039062 116.398438 C 179.007812 116.335938 179.070312 116.226562 179.039062 116.164062 C 176.070312 110.164062 171.914062 104.742188 166.765625 100.242188 C 166.742188 100.1875 166.664062 100.296875 166.640625 100.242188 C 165.835938 100.054688 164.984375 99.992188 164.15625 100 Z M 164.15625 100.007812 "
       id="path8444" />
    <path
       style=" stroke:none;fill-rule:nonzero;fill:rgb(0%,0%,0%);fill-opacity:0.321569;"
       d="M 152 124 C 152 128.421875 148.421875 132 144 132 C 139.578125 132 136 128.421875 136 124 C 136 119.585938 139.578125 116 144 116 C 148.421875 116 152 119.585938 152 124 Z M 152 124 "
       id="path8446" />
    <path
       style=" stroke:none;fill-rule:nonzero;fill:rgb(0%,0%,0%);fill-opacity:0.321569;"
       d="M 128 112 C 128 114.210938 126.210938 116 124 116 C 121.789062 116 120 114.210938 120 112 C 120 109.789062 121.789062 108 124 108 C 126.210938 108 128 109.789062 128 112 Z M 128 112 "
       id="path8448" />
  </g>
</svg>

<svg xmlns="http://www.w3.org/2000/svg" viewBox="0 0 256 256">
 <g>
  <path d="m 36 32 c -5.859 0 -12 6.05 -12 12 l 0 4 l -12 0 c -5.883 0 -12 5.984 -12 12 l 0 152 c 0 8 4 12 12 12 l 232 0 c 6.273 0 12 -5.43 12 -12 l 0 -132 c 0 -6.02 -5.82 -12 -12 -12 l -12 0 l 0 -24 c 0 -5.844 -5.813 -12 -12 -12 m -184 0" style="fill:#e8b07f;fill-opacity:1;stroke:none;fill-rule:nonzero"/>
  <path d="m 36 32 c -5.859 0 -12 6.05 -12 12 l 0 4 l -12 0 c -5.883 0 -12 5.984 -12 12 l 0 152 c 0 8 4 12 12 12 l 232 0 c 6.273 0 12 -5.43 12 -12 l 0 -132 c 0 -6.02 -5.82 -12 -12 -12 l -12 0 l 0 -24 c 0 -5.844 -5.813 -12 -12 -12 m -208 24 l 136 0 c 2.359 0 4 2.063 4 4 l 0 16 l 92 0 c 2.023 0 4 2.031 4 4 l 0 132 c 0 2.086 -1.914 4 -4 4 l -232 0 c -1.859 0 -4 -1.586 -4 -4 l 0 -152 c 0 -1.969 2.063 -4 4 -4 m 0 0" style="fill:#000;fill-opacity:0.322;stroke:none;fill-rule:nonzero"/>
  <path d="m 164.16 100.01 c -4.141 0.063 -8.219 2.609 -8.875 7.367 c -1.047 7.602 6.789 4.75 13.05 4.75 c 6.266 0 8.352 12.352 6.789 19.01 c -1.57 6.656 -18.219 22.367 -55.867 6.656 c -31 -12.938 -46.48 4.289 -47.26 4.633 c 2.93 25.703 26.852 53.58 55.867 53.58 c 31 0 56.13 -30.711 56.13 -58.93 c 0 -3.234 -0.414 -6.43 -1.047 -9.5 c -0.57 -1.555 -1.141 -3.102 -1.563 -4.516 c -0.758 -2.531 -1.617 -4.664 -2.352 -6.656 c -0.031 -0.063 0.031 -0.172 0 -0.234 c -2.969 -6 -7.125 -11.422 -12.273 -15.922 c -0.023 -0.055 -0.102 0.055 -0.125 0 c -0.805 -0.188 -1.656 -0.25 -2.484 -0.242 m 0 0.008" style="fill:#000;fill-opacity:0.322;stroke:none;fill-rule:nonzero"/>
  <path d="m 152 124 c 0 4.422 -3.578 8 -8 8 c -4.422 0 -8 -3.578 -8 -8 c 0 -4.414 3.578 -8 8 -8 c 4.422 0 8 3.586 8 8 m 0 0" style="fill:#000;fill-opacity:0.322;stroke:none;fill-rule:nonzero"/>
  <path d="m 128 112 c 0 2.211 -1.789 4 -4 4 c -2.211 0 -4 -1.789 -4 -4 c 0 -2.211 1.789 -4 4 -4 c 2.211 0 4 1.789 4 4 m 0 0" style="fill:#000;fill-opacity:0.322;stroke:none;fill-rule:nonzero"/>
 </g>
</svg>
